X:1
T:Title
%%score { ( 1 3 ) | ( 2 4 ) }
L:1/8
Q:1/4=84
M:6/8
K:D
V:1 treble nm="Grand Piano"
V:3 treble 
V:2 treble 
V:4 treble 
V:1
 Adc FcB | z3 .G3 | E[EGc][EGB] [FA][EG][DF] | z3 A3 | dcB A^GA | z3 .A3 | %6
w: Karl~K.~Lorenz * * * * *||||||
[M:13/16] [CE]ABc[Ge]3/2[Fd] |[M:3/4] c2 z2 z2 |[Q:1/4=99] d3 c3 | B4 z2 | c3 .B3 | G6 | %12
w: ||||||
 [EG]3 [FA]3 | [Gc]6 | [GA]3 [CB]3 | [DF]6 | d3 c3 | B4 z2 | =c3 .B3 | G6 | z B- B3 z | %21
w: |||||||||
 .d2 F F2 [GB] | F3 E3[K:bass] | D6 |] %24
w: |||
V:2
 D,[A,FA][A,FA][K:bass] A,,[A,DF][A,DE] | D,[G,A,][F,A,] z A,[A,^D] | E,^A,B, A,,=A,A, | %3
 C,[K:treble][A,C][A,CG][K:bass] D,[CD][B,D] | z[K:treble] [DF][DF][K:bass] z DD | %5
 z[K:treble] [DG][DG][K:bass] [F,,F,]2 [^D,,^D,] |[M:13/16] z C[E,^G,E][A,E][C,A,]3/2[D,A,] | %7
[M:3/4] [A,E]F, [E,^G,D] .[A,,A,]3 | z F .F2 FF | z D .D2[K:bass] DD | z D[K:treble] .D2 D[B,DF] | %11
 z[K:bass] A, .A,2 A,A, | E,A, A,A,, A,A, | E,A, A,A,, A,A, | E,A, A,A,, G,G, | D,A, B,C B,A, | %16
 z F .F2 FF | z D .D2[K:bass] DD | z[K:treble] F .F2[K:bass] D[DF] | %19
 [E,,E,][E,B,] .[F,B,]2 [F,B,][E,B,] | ^G,,[K:treble][^G,B,D=F] [G,B,D][K:bass] .[G,B,D]3 | %21
 A,,[K:treble][A,DF] [A,D][K:bass] [A,D]2 E, | z A, .A,2 G,G, | [D,,D,][A,,F,] [F,,F,] .D,,3 |] %24
V:3
 x6 | ACD z ^DF | x6 | GEA z FF | x6 | BcB z D[=CF] |[M:13/16] x13/2 | %7
[M:3/4] z ^D B[CA] ^G/A/B/c/ | z A .A2 AA | z F .F2 [F^A][FB] | z F .F2 FB | z C .C2 CC | %12
 z C .C2 CC | z C .C2 C[CGB] | z C .C2 A,A, | x6 | z A .A2 AA | z F .F2 [F^A][FB] | z A .A2 FA | %19
 z E EG, EE | .B2 =F F2 c | z A- A3 z | z D .D2 C[K:bass]C | z A, A, .[F,A,]3 |] %24
V:4
 x3[K:bass] x3 | z3 B,,3 | x6 | x[K:treble] x2[K:bass] x3 | [D,A,]3[K:treble][K:bass] [F,,F,]3 | %5
 [G,,G,]3[K:treble][K:bass] z3 |[M:13/16] [E,,E,]-<[E,,E,] z/ z/ z/ z/ z/ z/ z/ z | %7
[M:3/4] E,2 z2 z2 | D3 C3 | B,3[K:bass] A,,3 | C3[K:treble] .B,3 | G,3[K:bass] A,,3 | x6 | x6 | %14
 x6 | x6 | D3 C3 | B,3[K:bass] A,,3 | ^D,3[K:treble][K:bass] B,,3 | x6 | %20
 x[K:treble] x2[K:bass] x3 | x[K:treble] x2[K:bass] x3 | A,,3 [A,,,A,,]3 | x6 |] %24

